app/dist/common/images/ptc.svg

<svg height="18" width="18" xmlns="http://www.w3.org/2000/svg"><path d="m0 0h18v18h-18z" fill="#6ebe4b"/><path d="m4 6.004v2.656l4.998-3.024 2.814 1.675-.558.341-2.256-1.349-1.958 1.177 4.478 2.698 2.482-1.512v-2.662l-5.002-3.004z" fill="#3d4647"/><path d="m4 9.334v2.666l5.002 3 4.998-2.999v-2.661l-4.998 3.024-2.814-1.675.558-.341 2.251 1.349 1.958-1.181-4.478-2.699z" fill="#fff"/></svg>

<!-- by TradingView --><svg width="18" height="18" xmlns="http://www.w3.org/2000/svg"><path fill="#6EBE4B" d="M0 0h18v18H0z"/><path d="M4 6.004V8.66l4.998-3.024 2.814 1.675-.558.341-2.256-1.349L7.04 7.48l4.478 2.698L14 8.666V6.004L8.998 3 4 6.004z" fill="#3D4647"/><path d="M4 9.334V12L9.002 15 14 12.001V9.34l-4.998 3.024-2.814-1.675.558-.341 2.251 1.349 1.958-1.181-4.478-2.699L4 9.334z" fill="#fff"/></svg>
